images/quote.svg

<svg width="20" height="18" viewBox="0 0 20 18" fill="none" xmlns="http://www.w3.org/2000/svg">
<path fill-rule="evenodd" clip-rule="evenodd" d="M14.0721 17.3525L13.4371 16.9511L13.1617 16.698C12.1697 15.8222 11.085 14.1437 11.3739 10.9519C11.5429 8.45589 12.8048 4.71928 17.855 1.07989C18.0976 0.909578 18.3811 0.824463 18.6645 0.824463C19.057 0.824463 19.4467 0.98505 19.7084 1.29888C20.1554 1.83169 20.0491 2.60042 19.474 3.01398C15.3586 5.97459 14.2356 8.87688 14.0367 10.8668C14.6172 10.5652 15.274 10.3803 15.9854 10.3803C18.2012 10.3803 20 12.0468 20 14.1024C20 16.158 18.2039 17.8245 15.9854 17.8245C15.4839 17.8245 15.0233 17.7102 14.5845 17.5496L14.5981 17.5788L14.1348 17.3817L14.0939 17.3671L14.0721 17.3525ZM2.11881 16.9511L1.8408 16.6981C0.843227 15.8223 -0.24147 14.1437 0.0474319 10.9519C0.219198 8.45589 1.47832 4.71928 6.53135 1.07989C6.77387 0.909578 7.05737 0.824463 7.34078 0.824463C7.73328 0.824463 8.12303 0.98505 8.38466 1.29888C8.8317 1.83169 8.72811 2.60042 8.1503 3.01398C4.03489 5.97459 2.91195 8.87688 2.71574 10.8668C3.29621 10.5652 3.95308 10.3803 4.66441 10.3803C6.88569 10.3803 8.67906 12.0468 8.67906 14.1024C8.67906 16.158 6.88569 17.8245 4.6699 17.8245C4.16841 17.8245 3.70509 17.7102 3.26628 17.5496L3.27992 17.5788L2.81659 17.3817L2.77294 17.3671L2.75116 17.3525L2.11881 16.9511Z" fill="#090509"/>
</svg>

<svg xmlns="http://www.w3.org/2000/svg" width="20" height="18" fill="none" xmlns:v="https://vecta.io/nano"><path fill-rule="evenodd" d="M14.072 17.353l-.635-.4-.275-.253c-.992-.876-2.077-2.554-1.788-5.746.17-2.496 1.43-6.233 6.48-9.872.243-.17.526-.255.81-.255.392 0 .782.16 1.044.474.447.533.34 1.302-.234 1.715-4.115 2.96-5.238 5.863-5.437 7.853.58-.302 1.237-.486 1.95-.486C18.2 10.38 20 12.047 20 14.102s-1.796 3.722-4.015 3.722c-.502 0-.962-.114-1.4-.275l.014.03-.463-.197-.04-.015-.022-.015zm-11.953-.4l-.278-.253C.843 15.822-.24 14.144.047 10.952.22 8.456 1.478 4.72 6.53 1.08c.243-.17.526-.255.81-.255.393 0 .782.16 1.044.474a1.16 1.16 0 0 1-.234 1.715c-4.115 2.96-5.238 5.863-5.435 7.853.58-.302 1.237-.486 1.95-.486 2.22 0 4.015 1.666 4.015 3.722s-1.793 3.722-4.01 3.722c-.5 0-.965-.114-1.404-.275l.014.03-.463-.197-.044-.015-.022-.015-.632-.4z" fill="#090509"/></svg>
